X: 1
T: Marga's Moment
M: 9/8
L: 1/8
R: slip jig
K: Dmaj
M: 7/8
d2BA dcA | G2D2 GDG | A2D2 ADA | AEcE AA/B/c |
d2BA dcA | G2D2 GDG |1 A2D2 ABc | e2c2 c2e :|2 A2D2 AGF | G2GF E2D ||
B2d2 fed | G2Bd a2a | aggf efa | g2f2 edc |
~B3d fed | G2Bd a2b | aggf efa | gAfA edc :|
